X:17
T:No.117 Tommy Peoples
M:4/4
L:1/8
C:reel
K:D
DFAF BFAd|DFAF BEEE|
DFAF BFAd|faAc eddd:|
dffd ceAc|d2AF GFED|
A,DDD A,DFd|f2 de feef|
a3f gfef|edfd edfd|
ADFA FAEA|faAc edd2||Å@
